style-guide/assets/wds-icons-bold-active-small.svg

<svg xmlns="http://www.w3.org/2000/svg" xmlns:xlink="http://www.w3.org/1999/xlink" width="18" height="18" viewBox="0 0 18 18">
  <defs>
    <path id="bold-active-a" d="M15,12.340625 C15,14.9139739 12.8406229,17 10.1768235,17 L5.29411765,17 C4.57939621,17 4,16.4403559 4,15.75 L4,8.93125 C4,8.24089406 4.57939621,7.68125 5.29411765,7.68125 L10.1768235,7.68125 C12.8404361,7.68125 15,9.76772071 15,12.340625 Z M10.1768235,14.5 C11.4111066,14.5 12.4117647,13.5333328 12.4117647,12.340625 C12.4117647,11.1482909 11.4108465,10.18125 10.1768235,10.18125 L6.58823529,10.18125 L6.58823529,14.5 L10.1768235,14.5 Z M8.17611765,7.68125 C9.08610487,7.68125 9.82352941,6.96907317 9.82352941,6.090625 C9.82352941,5.21217683 9.08610487,4.5 8.17611765,4.5 L6.58823529,4.5 L6.58823529,7.68125 L8.17611765,7.68125 Z M8.17611765,10.18125 L5.29411765,10.18125 C4.57939621,10.18125 4,9.62160594 4,8.93125 L4,3.25 C4,2.55964406 4.57939621,2 5.29411765,2 L8.17611765,2 C10.5154597,2 12.4117647,3.8313799 12.4117647,6.090625 C12.4117647,8.3498701 10.5154597,10.18125 8.17611765,10.18125 Z"/>
  </defs>
  <use xlink:href="#bold-active-a"/>
</svg>

<svg xmlns="http://www.w3.org/2000/svg" xmlns:xlink="http://www.w3.org/1999/xlink" viewBox="0 0 18 18">
  <defs>
    <path id="bold-active-a" d="M15 12.34c0 2.574-2.16 4.66-4.823 4.66H5.294C4.58 17 4 16.44 4 15.75V8.931c0-.69.58-1.25 1.294-1.25h4.883c2.663 0 4.823 2.087 4.823 4.66zm-4.823 2.16c1.234 0 2.235-.967 2.235-2.16 0-1.192-1.001-2.159-2.235-2.159H6.588V14.5h3.589zm-2-6.819c.91 0 1.647-.712 1.647-1.59 0-.879-.738-1.591-1.648-1.591H6.588v3.181h1.588zm0 2.5H5.293C4.58 10.181 4 9.621 4 8.931V3.25C4 2.56 4.58 2 5.294 2h2.882c2.34 0 4.236 1.831 4.236 4.09 0 2.26-1.897 4.091-4.236 4.091z"/>
  </defs>
  <use xlink:href="#bold-active-a"/>
</svg>
